X: 17448
T: Highlander's Return
R: hornpipe
M: 4/4
K: Amajor
(3efg|:"A" a>ga>b a>gf>e|"D" d>cd>c "E" B2 e>f|"E" g>fg>a g>fe>d|"A" c>Bc>d e2 (3efg|
"A" a>ga>b a>gf>e|"D" d>cd>c "E" B2 e>f|"E" g>fg>a g>fe>d|"A" c2 c>B A4:|
|:"A" E>AA>A E>AA>A|c>BA>B c4|"D" d>ef>d "A" c>de>c|"E"B>AG>F E4|
"A" E>AA>A E>AA>A|c>BA>B c4|"D" d>ef>d "A" c>de>c|"E" B>AG>B "A" A4:|

